X: 10342
M: C
L: 1/16
K: Em
|:\
{B,F}B4 TB3A B3EE3F | A3d (BAGF) (DEFG) A3d |\
e3fe2d2 BABd e4 | d3ed2B2 AFAB d2f2 |\
e3fe2d2 (edef) g3e | d3B dBAF | E4 E2d2 |
e3fe2d2 BABd e4 | d3ed2B2 (AFAB) d2f2 |\
g3ef3d e3Bd3A | d3A BAGF B4 E4 :|


